X: 497
T: Tri Godini
O: Macedonia
Z: Transcribed yb Lyuben Dossev
Z: http://www.dunav.org.il/balkan_music_scores.html
M: 9/8
K: Eb
[ce][Bd] [Ac][Bd] [ce][df] [ce]3|\
[ce][Bd] [Ac][Bd] [ce][df] [ce]3|\
[Ac]2 [Ac][Ac] [Ac]2 [Ac][GB][FA]|
[GB]2 [ce][Bd] [Ac][GB] [GB]3|:\
[GB]2 [df]/2[eg]/2[eg] [df][ce] [Bd]2  [Ac]|\
[ce]>[Bd] [Ac]>[GB] [GB]/[Ac]/[GB]/[FA]/ [EG]2 z|
[Ac]2 [Ac]>[GB] [GB]>[FA] [EG][DF][CE]|\
[DF][EG] [FA][EG] [DF]E E3::\
ed c d ef e3|ed c d ef e2 z|\
c2 c2 c2 cBA|B2 ed dB B3::B B d/f/ g f e d c z|
e d c B B/c/B/A/ G2 z| c2 cB GA GFE|F G A G FE E2 z:|



